X:146
T:Tony's Favorite
M:6/8
L:1/8
C:© P. Gitlitz & A. Vivaldi 1984
R:Jig
B:Giblitz Fancy, 141 Brand New Old Time Fiddle Tunes Vol. 2
N:The "A" section is borrowed from Antonio Vivaldi.
K:Dm
A|:"Dm"d^cd "A"ede|"Dm"fefd2e|fef "A7"gfg|"Dm"aga fga|!
"Gm"efg "Dm"def|"A"^c2ea2g|"Dm"fed "A"ed^c|"Dm"~d3-d2A:|!
K:A
|"D"[FA][EA][DA] [FA][EA][DA]|DFA~d2A|[FA][EA][DA] [FA][EA][DA]|"A"~E3A,2E|!
"D"[FA][EA][DA]  [FA][EA][DA]|DFA~d2A|"E"~B3BAG|"A"~A3A2A|!
"A"Ace Ace|"D"~d3"A"c3|"E"~B3BcA|GAF EFG|!
"A"AGA "E"BAB|"A"cBc "D"dcd|"A"cBA "E"BAG|"A"~A3-A3|]
